modules/stroke-7/icons/film.svg

<?xml version="1.0" encoding="utf-8"?>
<!-- Generated by IcoMoon.io -->
<!DOCTYPE svg PUBLIC "-//W3C//DTD SVG 1.1//EN" "http://www.w3.org/Graphics/SVG/1.1/DTD/svg11.dtd">
<svg version="1.1" xmlns="http://www.w3.org/2000/svg" xmlns:xlink="http://www.w3.org/1999/xlink" width="26" height="32" viewBox="0 0 26 32">
<g id="icomoon-ignore">
</g>
<path d="M0 4.985v22.029h26.226v-22.029h-26.226zM4.196 25.966h-3.147v-4.196h3.147v4.196zM4.196 20.721h-3.147v-4.196h3.147v4.196zM4.196 15.476h-3.147v-4.196h3.147v4.196zM4.196 10.231h-3.147v-4.196h3.147v4.196zM20.98 11.979v13.987h-15.735v-19.931h15.735v5.944zM25.177 25.966h-3.147v-4.196h3.147v4.196zM25.177 20.721h-3.147v-4.196h3.147v4.196zM25.177 15.476h-3.147v-4.196h3.147v4.196zM25.177 10.231h-3.147v-4.196h3.147v4.196z" fill="#000000"></path>
<path d="M10.49 11.76v8.479l7.343-4.239-7.343-4.24zM11.539 13.577l4.196 2.423-4.196 2.423v-4.845z" fill="#000000"></path>
</svg>

<svg xmlns="http://www.w3.org/2000/svg" width="26" height="32" viewBox="0 0 26 32"><path d="M0 4.985v22.029h26.226V4.985H0zm4.196 20.981H1.049V21.77h3.147v4.196zm0-5.245H1.049v-4.196h3.147v4.196zm0-5.245H1.049V11.28h3.147v4.196zm0-5.245H1.049V6.035h3.147v4.196zm16.784 1.748v13.987H5.245V6.035H20.98v5.944zm4.197 13.987H22.03V21.77h3.147v4.196zm0-5.245H22.03v-4.196h3.147v4.196zm0-5.245H22.03V11.28h3.147v4.196zm0-5.245H22.03V6.035h3.147v4.196z"/><path d="M10.49 11.76v8.479L17.833 16l-7.343-4.24zm1.049 1.817L15.735 16l-4.196 2.423v-4.845z"/></svg>
